build/img/svg/curved-arrow.svg

<svg width="30" height="30" viewBox="0 0 30 30" fill="none" xmlns="http://www.w3.org/2000/svg">
<g clip-path="url(#clip0)">
<path d="M14.8189 0.00370016C14.8067 0.00370016 14.8019 0.00370016 14.797 0.00370016C14.7874 0.00370016 14.7874 0.00370016 14.7849 0.00370016C14.7849 0.00370016 14.7849 0.00370016 14.7813 0.00370016C14.7777 0.00370016 14.7728 0.00370016 14.768 0.00370016C14.7655 0.00370016 14.7655 0.00370016 14.7655 0.00370016C14.7655 0.00370016 14.7655 0.00370016 14.7607 0.00370016C14.728 -0.00357051 14.7183 0.0012766 14.694 0.0012766C10.8127 0.0012766 7.03682 1.54024 4.24609 4.24614L1.17787 1.13065C1.02882 0.985241 0.80343 0.939193 0.61924 1.01675C0.426567 1.09915 0.298119 1.28334 0.298119 1.49419V11.6101C0.298119 11.8949 0.529568 12.1251 0.810701 12.1251H10.803C10.8091 12.1251 10.82 12.1251 10.8273 12.1251C11.1108 12.1251 11.3411 11.8961 11.3411 11.6101C11.3411 11.4211 11.2381 11.2539 11.0842 11.1654L8.0535 8.09838C9.85057 6.36311 12.1954 5.41308 14.7668 5.41308C20.0138 5.44701 24.2877 9.74276 24.2877 15.077C24.2477 20.3192 19.9495 24.5858 14.6177 24.5858L14.6298 30.0001H14.7037C22.9184 30.0001 29.6486 23.3135 29.7019 15.0031C29.7019 6.79329 23.0323 0.0727715 14.8189 0.00370016Z" fill="#27AE60"/>
</g>
<defs>
<clipPath id="clip0">
<rect width="30" height="30" fill="white"/>
</clipPath>
</defs>
</svg>

<svg width="30" height="30" fill="none" xmlns="http://www.w3.org/2000/svg"><g clip-path="url(#clip0)"><path d="M14.819.004h-.058C14.728-.004 14.718 0 14.694 0A15.078 15.078 0 004.246 4.246L1.178 1.131a.523.523 0 00-.559-.114.52.52 0 00-.32.477V11.61c0 .285.23.515.512.515h10.016a.514.514 0 00.257-.96l-3.03-3.067c1.797-1.735 4.141-2.685 6.713-2.685 5.247.034 9.52 4.33 9.52 9.664-.04 5.242-4.337 9.509-9.67 9.509L14.63 30h.074c8.214 0 14.945-6.686 14.998-14.997 0-8.21-6.67-14.93-14.883-15z" fill="#27AE60"/></g><defs><clipPath id="clip0"><path fill="#fff" d="M0 0h30v30H0z"/></clipPath></defs></svg>
